!!!OTL: 51. Der Freiheit Schlachtruf (1812). / [Das Eisenlied.]
!!!COM: A. Methfessel
!!!ODT: 1818
!!!ARE: Europa, Mitteleuropa, Deutschland
!!!SCT: B0051
!!!TXL: @@DE
!!!YEM: Copyright 1995, estate of Helmut Schaffrath.
**kern	**text
*ICvox	*
*Ivox	*
*M4/4	*
*met(c)	*
*clefG2	*
*k[]	*
*C:	*
!LO:TX:a:t=Feurig.	!
{4g	Der
=1	=1
4.cc	Gott,
8c	der
4e	Ei-
4c	-ſen
=2	=2
4.a	wach-
8a	-ſen
4a}	ließ,
{4a	der
=3	=3
4.g	woll-
8f	-te
4e	kei-
4d	-ne
=4	=4
4e	Knech-
4c	-te,
4r}	.
{4g	drum
=5	=5
4cc	gab
4c	er
4e	Sä-
4c	-bel
=6	=6
4.a	Schwert
8a	und
4a}	Spieß
{4dd	dem
=7	=7
4.b/	Mann
8a	in
4g	ſei-
4a	-ne
=8	=8
4b/	Rech-
4g	-te
4r}	.
{4g	drum
=9	=9
4.g	gab
8g	er
4a	ihm
4a	den
=10	=10
4.b	küh-
8b	-nen
4cc}	Muth,
{4g	den
=11	=11
4.ff	Ʒorn
8dd	der
4ee	frei-
4cc	-en
=12	=12
8.bL	Re-
16ccJ	.
4dd	-de,
4r}	.
{4g	daß
=13	=13
4.ee	er
8dd	be-
4cc	-ſtän-
4b	-de
=14	=14
4a	bis
4g	aufs
4f}	Blut,
{4e	bis
=15	=15
4d	in
4a	den
4g	Tod
4f	die
=16	=16
(2e	Feh-
2d)	.
=17	=17
2c	-de.
4r}	.
{4g	daß
=18	=18
4.ee	er
8dd	be-
4cc	-ſtän-
4b	-de
=19	=19
4a	bis
4g	aufs
4f}	Blut,
{4e	bis
=20	=20
4d	in
4a	den
4g	Tod
4f	die
=21	=21
(2e	Feh-
2d)	.
=22	=22
2c	-de.
4r}	.
==	==
!!!AGN: Kriegs -, Sieges -, Soldaten - Lied
!!!GTL: Kriegs- und Siegeslieder
!!!ONB: ESAC (Essen Associative Code) Database: BOEHME
!!!AMT: simple quadruple
!!!AIN: vox
!!!EED: Helmut Schaffrath
!!!EEV: 1.0
!!@@COMMENT:"Gedicht von E. M. Arndt. Ʒuerſt in: "Lieder für Teutſche" von E. M. Arndt. Jm Jahre
!!der Freiheit 1813. S. 81. Dann in Arndts Gedichten, mit Aenderung der 2. Ʒeile in 4. Str.
!!fürs Vaterland (ſtatt: ʒum heilgen Krieg). Die verbreitetſte Melodie von A. Methfeſſel in deſſen
!!Commersbuch 1816, dann in "Deutſche Lieder für Jung und Alt", Berlin 1818, in Follens Freyen Stimmen" 1819."
!!@@END:
!!Text: E. M. Arndt
!!!URL-scan: https://archive.org/details/BoehmeVtLieder1895/page/n67/mode/2up
!!!ENC: Anna Maria Matuszewska
!!!EEV: 2024/14/06
*-	*-
